X: 1
T:La Casa di Vronovsky - Schottisch
C:La Ciapa Rusa: Aji  & Safran 1 a
M:4/4
L:1/8
K:C
AGAB c2 A2|BABc d4|e2 dc B2d2|1 cdcB c2 A2:|2  cdcB A4||\
A2 ce d2 B2|G^FGA D4|
E2 (3DCB, A,2 EF|GABG cBA^G|\
A2 ce d2 B2|G^FGA =F4|fedc BDGB|dcBc A4||**
